build/svg/cmd/32/selectdb.svg

<?xml version="1.0" encoding="UTF-8" standalone="no"?>
<svg
   xmlns:dc="http://purl.org/dc/elements/1.1/"
   xmlns:cc="http://creativecommons.org/ns#"
   xmlns:rdf="http://www.w3.org/1999/02/22-rdf-syntax-ns#"
   xmlns:svg="http://www.w3.org/2000/svg"
   xmlns="http://www.w3.org/2000/svg"
   xmlns:sodipodi="http://sodipodi.sourceforge.net/DTD/sodipodi-0.dtd"
   xmlns:inkscape="http://www.inkscape.org/namespaces/inkscape"
   viewBox="0 0 32 32"
   version="1.1"
   id="svg6"
   sodipodi:docname="selectdb.svg"
   inkscape:version="0.92.5 (2060ec1f9f, 2020-04-08)"
   inkscape:export-filename="/home/jupiter007/Libreoffice yaru theme fullcolor/build/cmd/32/selectdb.png"
   inkscape:export-xdpi="96"
   inkscape:export-ydpi="96">
  <metadata
     id="metadata12">
    <rdf:RDF>
      <cc:Work
         rdf:about="">
        <dc:format>image/svg+xml</dc:format>
        <dc:type
           rdf:resource="http://purl.org/dc/dcmitype/StillImage" />
      </cc:Work>
    </rdf:RDF>
  </metadata>
  <defs
     id="defs10" />
  <sodipodi:namedview
     pagecolor="#ffffff"
     bordercolor="#666666"
     borderopacity="1"
     objecttolerance="10"
     gridtolerance="10"
     guidetolerance="10"
     inkscape:pageopacity="0"
     inkscape:pageshadow="2"
     inkscape:window-width="1920"
     inkscape:window-height="1011"
     id="namedview8"
     showgrid="true"
     inkscape:zoom="29.5"
     inkscape:cx="14.780999"
     inkscape:cy="15.555856"
     inkscape:window-x="0"
     inkscape:window-y="32"
     inkscape:window-maximized="1"
     inkscape:current-layer="svg6">
    <inkscape:grid
       type="xygrid"
       id="grid852" />
  </sodipodi:namedview>
  <path
     style="fill:#ffffff;fill-opacity:1;stroke:#ffffff;stroke-width:2;stroke-linejoin:round;stroke-miterlimit:4;stroke-dasharray:none"
     id="path856"
     d="m 16,14 v 14 l 4,-5 h 7 z"
     inkscape:connector-curvature="0"
     sodipodi:nodetypes="ccccc" />
  <path
     style="fill:#ffffff;fill-opacity:1;stroke:#ffffff;opacity:0;stroke-width:2;stroke-miterlimit:4;stroke-dasharray:none;stroke-linejoin:round"
     id="path854"
     stroke-width="1.431818"
     fill="#762572"
     d="m16 14v14l4-5h8z" />
  <path
     d="m 16,14 v 14 l 4,-5 h 7 z"
     id="path4"
     style="fill:#232629;fill-opacity:1;stroke-width:1.43181801"
     inkscape:connector-curvature="0"
     sodipodi:nodetypes="ccccc" />
  <rect
     style="opacity:1;fill:#ffffff;fill-opacity:1;fill-rule:evenodd;stroke:none;stroke-width:2;stroke-linecap:butt;stroke-linejoin:round;stroke-miterlimit:4;stroke-dasharray:none;stroke-opacity:1"
     id="rect859"
     width="5"
     height="23"
     x="4.000001"
     y="4" />
  <rect
     y="-27"
     x="4"
     height="23"
     width="5"
     id="rect861"
     style="opacity:1;fill:#a6d74f;fill-opacity:1;fill-rule:evenodd;stroke:none;stroke-width:2;stroke-linecap:butt;stroke-linejoin:round;stroke-miterlimit:4;stroke-dasharray:none;stroke-opacity:1"
     transform="rotate(90)" />
  <path
     style="opacity:1;fill:#6d6d6d;fill-opacity:1;fill-rule:evenodd;stroke:none;stroke-width:2;stroke-linecap:butt;stroke-linejoin:round;stroke-miterlimit:4;stroke-dasharray:none;stroke-opacity:1"
     d="M 3,5.0000003 V 10 26 c 0,2 0.9999999,2 2.9999999,2 H 9.9999998 V 10 H 28 V 5.0000003 c 0,-2 -1,-2 -3,-2 H 9.9999998 6 c -2,0 -3,0 -3,2 z m 2.9999999,-1 H 9 V 9 H 3.9999999 V 5.0000003 c 0,-1 1,-1 2,-1 z m 3.9999999,0 H 15 V 9 H 9.9999998 Z m 6.0000002,0 h 5 V 9 h -5 z m 6,0 h 3 c 1,0 2,0 2,1 V 9 H 22 Z M 3.9999999,10 H 9 v 5 H 3.9999999 Z m 0,6 H 9 v 5 H 3.9999999 Z m 0,6 H 9 v 5 H 5.9999999 c -1,0 -2,0 -2,-1 z"
     id="rect832"
     inkscape:connector-curvature="0"
     sodipodi:nodetypes="cccccccccccccccccccccccccccccccccccccccccccccccccc" />
</svg>

<svg xmlns="http://www.w3.org/2000/svg" viewBox="0 0 32 32"><path d="M16 14v14l4-5h7z" fill="#fff" stroke="#fff" stroke-width="2" stroke-linejoin="round"/><path d="M16 14v14l4-5h7z" fill="#232629"/><path fill="#fff" fill-rule="evenodd" d="M4 4h5v23H4z"/><path fill="#a6d74f" fill-rule="evenodd" d="M27 4v5H4V4z"/><path d="M3 5v21c0 2 1 2 3 2h4V10h18V5c0-2-1-2-3-2H6C4 3 3 3 3 5zm3-1h3v5H4V5c0-1 1-1 2-1zm4 0h5v5h-5zm6 0h5v5h-5zm6 0h3c1 0 2 0 2 1v4h-5zM4 10h5v5H4zm0 6h5v5H4zm0 6h5v5H6c-1 0-2 0-2-1z" fill="#6d6d6d" fill-rule="evenodd"/></svg>
